X: 33048
T: Pride Of Petravore, The
R: hornpipe
M: 4/4
K: Eminor
|:B,D|E3 F G3 A|BcBA G2 E2|D2 DE F2 FG|AFDF A2 GF|
E3 F G3 A|BcBA GFGA|BABc BAGF|E2 D2 E2:|
|:(3Bcd|e2 e2 e2 fe|dBGA B2 Bc|BAFG A2 AB|AGED E2 (3Bcd|
e2 e2 e2 ge|dBGA B2 GA|BABc BAGF|E2 D2 E2:|

